X: 41040
T: Trip To Letterkenny
R: reel
M: 4/4
K: Dmajor
|:"D"Addc "A"ABcA|"D"d2 fd edce|"A"A2 EA cdec|"D"A2 FA "A"GEAc|
"Bm"defd "Em"gefg|"A"a2 ed ceAG|"D" F2 (3EFG "A"ABcA|"A7"GEAG "D"FD D2:|
|:"D"fgaf "Em"g2 (3efg|"A"abag "D"fdde|"Bm"f2 ge "A"dcAB|"A"cAGE "D"EDDE|
"Gmaj7"F3G "A"ABce|"Bm"d2 cA "A"GECE|"D"D2 (3EFG "A"A2 d2|"A"cAGE "D"FD D2:|

